packages/icons/src/components/Logo/assets/dark/go.svg

<svg width="20" height="20" viewBox="0 0 20 20" fill="none" xmlns="http://www.w3.org/2000/svg">
<path d="M11.4271 6.7835L11.471 6.81281C11.9871 7.15363 12.3571 7.62104 12.6006 8.18583C12.659 8.27346 12.62 8.32215 12.5032 8.35137L12.3054 8.40196C11.8582 8.51716 11.5034 8.61403 11.0622 8.72923L10.8105 8.7948C10.7199 8.81722 10.6948 8.8078 10.5985 8.69804L10.5849 8.68245C10.4474 8.52664 10.3444 8.4226 10.1623 8.32971L10.1272 8.31242C9.51371 8.01055 8.91971 8.09819 8.36467 8.45848C7.7025 8.88694 7.36168 9.51989 7.37142 10.3086C7.38116 11.0877 7.91673 11.7303 8.68601 11.8375C9.34817 11.9251 9.90322 11.6914 10.3414 11.1948C10.4291 11.0877 10.507 10.9708 10.6043 10.8345H8.72496C8.52047 10.8345 8.47178 10.7079 8.53994 10.5423L8.5737 10.4629C8.69885 10.1717 8.89296 9.75317 9.01903 9.51387L9.04654 9.46238C9.08019 9.40401 9.14855 9.32513 9.28001 9.32513L12.4137 9.32511C12.5545 8.87922 12.7828 8.4579 13.0874 8.05924C13.7983 7.12442 14.6552 6.63753 15.814 6.43304C16.8072 6.25777 17.7421 6.35514 18.5892 6.92967C19.3585 7.4555 19.8357 8.16635 19.9622 9.10117C20.1278 10.4158 19.748 11.4869 18.8424 12.4022C18.1997 13.0547 17.411 13.4636 16.5054 13.6487C16.2424 13.6974 15.9795 13.7071 15.7264 13.7363C14.8402 13.7168 14.032 13.4636 13.3504 12.8794C12.8709 12.465 12.5407 11.9556 12.3766 11.3627C12.2627 11.5927 12.1266 11.8129 11.9676 12.0225C11.2665 12.9476 10.3512 13.5221 9.19237 13.6779C8.23808 13.8045 7.35195 13.6195 6.57293 13.0352C5.85234 12.4899 5.44336 11.7693 5.33625 10.8734C5.20966 9.81202 5.52126 8.85773 6.16395 8.02029C6.85533 7.11468 7.77067 6.54016 8.8905 6.33567C9.78889 6.17319 10.6498 6.27337 11.4271 6.7835ZM16.0594 8.17889L16.0282 8.18583C15.1226 8.39032 14.5384 8.96484 14.3241 9.88018C14.1488 10.6397 14.5189 11.409 15.22 11.7206C15.7556 11.9543 16.2911 11.9251 16.8072 11.6622C17.5765 11.2629 17.9952 10.6397 18.0439 9.80228C18.0342 9.67569 18.0342 9.57831 18.0147 9.48094C17.8414 8.52774 16.9731 7.9839 16.0594 8.17889ZM4.5475 9.95808C4.58645 9.95808 4.60592 9.9873 4.60592 10.0262L4.58645 10.26C4.58645 10.2989 4.5475 10.3281 4.51828 10.3281L2.39547 10.3184C2.35652 10.3184 2.34678 10.2892 2.36626 10.26L2.50258 10.0165C2.52206 9.9873 2.56101 9.95808 2.59996 9.95808H4.5475ZM4.76172 9.06222C4.80068 9.06222 4.82015 9.09143 4.81041 9.12064L4.73251 9.35435C4.72277 9.3933 4.68382 9.41277 4.64487 9.41277L0.0389507 9.42251C0 9.42251 -0.00973768 9.40304 0.00973768 9.37382L0.214229 9.11091C0.233704 9.08169 0.282393 9.06222 0.321343 9.06222H4.76172ZM5.26808 8.16635C5.30703 8.16635 5.31677 8.19556 5.2973 8.22478L5.13176 8.47796C5.11228 8.50717 5.06359 8.53638 5.03438 8.53638L1.50934 8.52664C1.47039 8.52664 1.46065 8.50717 1.48013 8.47796L1.68462 8.21504C1.70409 8.18583 1.75278 8.16635 1.79173 8.16635H5.26808Z" fill="white"/>
</svg>

<svg xmlns="http://www.w3.org/2000/svg" width="20" height="20" fill="none" viewBox="0 0 20 20">
    <path fill="#fff" d="m11.427 6.784.044.029c.516.34.886.808 1.13 1.373.058.087.019.136-.098.165l-.198.051c-.447.115-.802.212-1.243.327l-.252.066c-.09.022-.115.013-.212-.097l-.013-.016c-.138-.155-.24-.26-.423-.352l-.035-.018c-.613-.301-1.207-.214-1.762.146-.663.429-1.003 1.062-.994 1.85.01.78.546 1.422 1.315 1.53.662.087 1.217-.147 1.655-.643.088-.107.166-.224.263-.36H8.725c-.205 0-.253-.127-.185-.293l.034-.08c.125-.29.319-.709.445-.948l.028-.052a.26.26 0 0 1 .233-.137h3.134c.14-.446.369-.867.673-1.266.711-.935 1.568-1.421 2.727-1.626.993-.175 1.928-.078 2.775.497.77.526 1.247 1.236 1.373 2.171.166 1.315-.214 2.386-1.12 3.301-.642.653-1.431 1.062-2.337 1.247-.263.048-.525.058-.779.087-.886-.02-1.694-.272-2.376-.857a3.06 3.06 0 0 1-.973-1.516q-.17.345-.41.66c-.7.925-1.616 1.5-2.775 1.655-.954.127-1.84-.059-2.62-.643-.72-.545-1.129-1.266-1.236-2.162-.126-1.061.185-2.015.828-2.853.691-.905 1.607-1.48 2.726-1.684.899-.163 1.76-.063 2.537.447m4.632 1.395-.03.007c-.906.204-1.49.779-1.705 1.694-.175.76.195 1.529.896 1.84.536.234 1.071.205 1.587-.058.77-.4 1.188-1.022 1.237-1.86-.01-.126-.01-.224-.03-.321-.173-.953-1.04-1.497-1.955-1.302M4.547 9.959c.04 0 .059.028.059.067l-.02.234c0 .039-.038.068-.068.068l-2.123-.01c-.038 0-.048-.029-.029-.058l.137-.243c.02-.03.058-.059.097-.059zm.215-.897c.039 0 .058.03.048.059l-.077.233c-.01.04-.05.059-.088.059l-4.606.01c-.039 0-.049-.02-.03-.05l.205-.262c.02-.03.068-.049.107-.049zm.506-.896c.039 0 .049.03.03.059l-.166.253c-.02.03-.068.058-.098.058l-3.525-.01c-.039 0-.048-.019-.029-.048l.205-.263c.02-.03.068-.049.107-.049z"/>
</svg>
